durablefunctionsmonitor.dotnetbackend/DfmStatics/static/icons/table.svg

<?xml version="1.0" encoding="utf-8"?>
<!-- Generator: Adobe Illustrator 18.1.0, SVG Export Plug-In . SVG Version: 6.00 Build 0)  -->
<!DOCTYPE svg PUBLIC "-//W3C//DTD SVG 1.0//EN" "http://www.w3.org/TR/2001/REC-SVG-20010904/DTD/svg10.dtd">
<svg version="1.0" xmlns="http://www.w3.org/2000/svg" xmlns:xlink="http://www.w3.org/1999/xlink" x="0px" y="0px"
	 viewBox="0 0 152 117.5" enable-background="new 0 0 152 117.5" xml:space="preserve">
<g id="Layer_1">
	<g id="Azure">
	</g>
	<g id="BizTalk_Services" transform="translate(37.3575,-2500.2)">
	</g>
	<g id="Key_Vault">
	</g>
	<g id="Mobile_Engagement">
	</g>
	<g id="Office_subscription">
		<g id="Office_subscription_1_">
		</g>
	</g>
</g>
<g id="paths">
	<g id="Access_control">
	</g>
	<g id="Azure_active_directory">
	</g>
	<g id="API_Management">
	</g>
	<g id="Azure_automation">
	</g>
	<g id="Azure_SQL_database">
	</g>
	<g id="Azure_subscription">
	</g>
	<g id="Backup_service">
	</g>
	<g id="Bitbucket_code_source">
	</g>
	<g id="Azure_cache">
	</g>
	<g id="Content_delivery_network__x28_CDN_x29_">
	</g>
	<g id="Cloud_service">
	</g>
	<g id="CodePlex">
	</g>
	<g id="Dropbox_code_source">
	</g>
	<g id="Express_route">
	</g>
	<g id="Git_repository">
	</g>
	<g id="GitHub_code">
	</g>
	<g id="HD_Insight">
	</g>
	<g id="Health_monitoring">
	</g>
	<g id="Healthy">
	</g>
	<g id="BizTalk_hybrid_connection">
	</g>
	<g id="Hybrid_connection_manager_for_BizTalk_hybrid_connection">
	</g>
	<g id="Hyper-V_recovery_manager">
	</g>
	<g id="Machine_learning">
	</g>
	<g id="Media_services">
	</g>
	<g id="Microsoft_account">
	</g>
	<g id="Mobile_services">
	</g>
	<g id="Multi-factor_authentication">
	</g>
	<g id="MySQL_database">
	</g>
	<g id="Notification_hub">
	</g>
	<g id="Notification_topic">
	</g>
	<g id="Cloud_Office_365">
	</g>
	<g id="Office_365">
	</g>
	<g id="OS_image">
	</g>
	<g id="Remote_app">
	</g>
	<g id="Task_scheduler">
	</g>
	<g id="Azure_SDK">
	</g>
	<g id="Service_bus">
	</g>
	<g id="Service_bus_queue">
	</g>
	<g id="Service_bus_relay">
	</g>
	<g id="Service_bus_topic">
	</g>
	<g id="Service_endpoint">
	</g>
	<g id="Custom_create">
	</g>
	<g id="SQL_data_sync">
	</g>
	<g id="SQL_reporting">
	</g>
	<g id="Startup_task">
	</g>
	<g id="Windows_Azure_storage">
	</g>
	<g id="Storage_blob">
	</g>
	<g id="Storage_table">
		<path fill="#0078D7" d="M85.5,42.3H66.5l-9.5,16.4l9.5,16.4h18.9l9.5-16.4L85.5,42.3z M75.1,50.9h4.4v4.4h-4.4V50.9z M75.1,56.4
			h4.4v4.4h-4.4V56.4z M75.1,61.9h4.4v4.4h-4.4V61.9z M69.6,50.9h4.4v4.4h-4.4V50.9z M69.6,56.4h4.4v4.4h-4.4V56.4z M69.6,61.9h4.4
			v4.4h-4.4V61.9z M84.9,68.7H67V50.8h1.2v16.7h0v0h16.7V68.7z M85,66.3h-4.4v-4.4H85V66.3z M85,60.8h-4.4v-4.4H85V60.8z M85,55.3
			h-4.4v-4.4H85V55.3z"/>
	</g>
</g>
<g id="Layer_57">
</g>
<g id="Ibiza_Symbols">
	<g id="SQL_Database_Premium">
	</g>
</g>
</svg>

<?xml version="1.0" encoding="UTF-8" standalone="no"?>
<svg
   xmlns:dc="http://purl.org/dc/elements/1.1/"
   xmlns:cc="http://creativecommons.org/ns#"
   xmlns:rdf="http://www.w3.org/1999/02/22-rdf-syntax-ns#"
   xmlns:svg="http://www.w3.org/2000/svg"
   xmlns="http://www.w3.org/2000/svg"
   xmlns:sodipodi="http://sodipodi.sourceforge.net/DTD/sodipodi-0.dtd"
   xmlns:inkscape="http://www.inkscape.org/namespaces/inkscape"
   version="1.1"
   id="Layer_1"
   x="0px"
   y="0px"
   viewBox="0 0 64 64"
   enable-background="new 0 0 64 64"
   xml:space="preserve"
   sodipodi:docname="table.svg"
   inkscape:version="1.0.2 (e86c870879, 2021-01-15, custom)"><metadata
   id="metadata17"><rdf:RDF><cc:Work
       rdf:about=""><dc:format>image/svg+xml</dc:format><dc:type
         rdf:resource="http://purl.org/dc/dcmitype/StillImage" /></cc:Work></rdf:RDF></metadata><defs
   id="defs15" /><sodipodi:namedview
   pagecolor="#ffffff"
   bordercolor="#666666"
   borderopacity="1"
   objecttolerance="10"
   gridtolerance="10"
   guidetolerance="10"
   inkscape:pageopacity="0"
   inkscape:pageshadow="2"
   inkscape:window-width="2160"
   inkscape:window-height="1470"
   id="namedview13"
   showgrid="false"
   inkscape:zoom="11.484375"
   inkscape:cx="32"
   inkscape:cy="32"
   inkscape:window-x="85"
   inkscape:window-y="-11"
   inkscape:window-maximized="1"
   inkscape:current-layer="Layer_1" />

<g
   id="paths"
   transform="matrix(1.6524869,0,0,1.6524869,-93.549915,-64.449854)"><g
     id="Access_control" /><g
     id="Azure_active_directory" /><g
     id="API_Management" /><g
     id="Azure_automation" /><g
     id="Azure_SQL_database" /><g
     id="Azure_subscription" /><g
     id="Backup_service" /><g
     id="Bitbucket_code_source" /><g
     id="Azure_cache" /><g
     id="Content_delivery_network__x28_CDN_x29_" /><g
     id="Cloud_service" /><g
     id="CodePlex" /><g
     id="Dropbox_code_source" /><g
     id="Express_route" /><g
     id="Git_repository" /><g
     id="GitHub_code" /><g
     id="HD_Insight" /><g
     id="Health_monitoring" /><g
     id="Healthy" /><g
     id="BizTalk_hybrid_connection" /><g
     id="Hybrid_connection_manager_for_BizTalk_hybrid_connection" /><g
     id="Hyper-V_recovery_manager" /><g
     id="Machine_learning" /><g
     id="Media_services" /><g
     id="Microsoft_account" /><g
     id="Mobile_services" /><g
     id="Multi-factor_authentication" /><g
     id="MySQL_database" /><g
     id="Notification_hub" /><g
     id="Notification_topic" /><g
     id="Cloud_Office_365" /><g
     id="Office_365" /><g
     id="OS_image" /><g
     id="Remote_app" /><g
     id="Task_scheduler" /><g
     id="Azure_SDK" /><g
     id="Service_bus" /><g
     id="Service_bus_queue" /><g
     id="Service_bus_relay" /><g
     id="Service_bus_topic" /><g
     id="Service_endpoint" /><g
     id="Custom_create" /><g
     id="SQL_data_sync" /><g
     id="SQL_reporting" /><g
     id="Startup_task" /><g
     id="Windows_Azure_storage" /><g
     id="Storage_blob" /><g
     id="Storage_table"><path
       fill="#0078d7"
       d="m 85.5,42.3 h -19 L 57,58.7 66.5,75.1 h 18.9 l 9.5,-16.4 z m -10.4,8.6 h 4.4 v 4.4 h -4.4 z m 0,5.5 h 4.4 v 4.4 h -4.4 z m 0,5.5 h 4.4 v 4.4 h -4.4 z m -5.5,-11 H 74 v 4.4 h -4.4 z m 0,5.5 H 74 v 4.4 h -4.4 z m 0,5.5 H 74 v 4.4 h -4.4 z m 15.3,6.8 H 67 V 50.8 h 1.2 v 16.7 0 0 H 84.9 Z M 85,66.3 H 80.6 V 61.9 H 85 Z m 0,-5.5 H 80.6 V 56.4 H 85 Z m 0,-5.5 H 80.6 V 50.9 H 85 Z"
       id="path56" /></g></g></svg>
